X:1
T:Title
%%score 1 2
L:1/8
Q:1/4=96
M:4/4
K:Ab
V:1 treble nm="Grand Piano, Soprano"
V:2 bass nm="Choir Pad, São Tomé, J. Tenney, 1878"
V:1
 [CA][DB] [Ec]2- [Ec][DB] [CA]>[EG] | [DF]>[DA] [CE]6 | [CA]2 [EB]2- [EB][Ec] [EB]2 | E2 [Ec]6 | %4
w: By~John~Harrison~Tenney,~1878 * * * * * *||||
 [CA][DB] [Ec]2- [Ec][DB] [CA]>[EG] | [DF]>[DA] [CE]6 | [CA][=DB] [Ec]2- [Ec][CA] [_DB]2 | %7
w: |||
 [DB]2 [CA]6 | [Ec]2 [Fd]2- [Fd][DF] [DF]>[DF] | [FA]>[Fd] [Ec]6 | [Ec]2 [EB]2- [EB][EG] [FA]2 | %11
w: ||||
 [=DF]2 E6 | [CA][DB] [Ec]2- [Ec][DB] [CA]>[EG] | [DF]>[DA] [CE]6 | %14
w: |||
 [CA][=DB] [Ec]2- [Ec][CA] [_DB]2 | [DB]2 [CA]6 | [CE]2 [DF]2- [DF][EG] [FA]>[GB] | %17
w: |||
 [FA]>[DF] [CE]6 | [CA][DB] [Ec]2- [Ec][Ec] [Ed]2 | [Ec]2 [EB]6 | %20
w: |||
 [CA][DB] [Ec]2- [Ec][DB] [CA]>[EG] | [DF]>[DA] [CE]6 | [CA][=DB] [Ec]2- [Ec][CA] [_DB]2 | %23
w: |||
 [DB]2 [CA]6- | [CA]2 z2 z4 |] %25
w: ||
V:2
 [A,,A,]2 [A,,A,]2- [A,,A,][A,,A,] [A,,A,]>[A,,A,] | [A,,A,]>[A,,F,] [A,,A,]6 | %2
 [A,,A,]2 [E,G,]2- [E,G,][E,A,] [E,G,]2 | [G,B,]2 A,6 | %4
 [A,,A,]2 [A,,A,]2- [A,,A,][A,,A,] [A,,A,]>[A,,A,] | [A,,A,]>[A,,F,] [A,,A,]6 | %6
 [F,A,]2 [E,A,]2- [E,A,][E,A,] [E,G,]2 | [E,G,]2 [A,,A,]6 | %8
 [A,,A,]2 [D,A,]2- [D,A,][D,A,] [D,A,]>[D,A,] | [D,A,]>[D,A,] [A,,A,]6 | %10
 [A,,A,]2 [B,,G,]2- [B,,G,][B,,B,] [B,,B,]2 | [B,,A,]2 [E,G,]6 | %12
 [A,,A,]2 [A,,A,]2- [A,,A,][A,,A,] [A,,A,]>[A,,A,] | [A,,A,]>[A,,F,] [A,,A,]6 | %14
 [F,A,]2 [E,A,]2- [E,A,][E,A,] [E,G,]2 | [E,G,]2 [A,,A,]6 | %16
 [A,,A,]2 [D,A,]2- [D,A,][D,A,] [D,A,]>[D,A,] | [D,A,]>[D,A,] [A,,A,]6 | %18
 [A,,A,]2 A,2- A,/ z/ A, [G,B,]2 | A,2 [E,G,]6 | %20
 [A,,A,]2 [A,,A,]2- [A,,A,][A,,A,] [A,,A,]>[A,,A,] | [A,,A,]>[A,,F,] [A,,A,]6 | %22
 [F,A,]2 [E,A,]2- [E,A,][E,A,] [E,G,]2 | [E,G,]2 [A,,A,]6- | [A,,A,]2 z2 z4 |] %25

